X: 7
T: Billy in the Lowground
M:C|
L:1/8
S:https://tunearch.org/wiki/Billy_in_the_Lowground_(1)
K:C
[C3E3]D [C2E2]DE|c2 cd c2G2|ABAA- AABc|[ee][e2e2]d [e2e2]ge|
[C3E3]D [C2E2]DE|c2c-d c2G2|A3B AG E2|[G,D]-[A,E][CE][A,E] [G,D][C3E3]:||
|:eg2g gage-|ec-cd c2 [G,2G2]|A2a2 abag|ea2b a2g2|
eg2g gage-|ec-cd c2 [G,2G2]|A3B AG E2| [A,2E2][CE]A, [G,D][C3E3]:|

